!!!OTL: "Die Ritterfahrt" DER HERZOG ERNST AUS SCHWABENLAND
!!!ARE: Europa, Mitteleuropa, Deutschland, Nord - Deutschland
!!!SCT: Z1033
!!!YEM: Copyright 1995, estate of Helmut Schaffrath.
**kern
*ICvox
*Ivox
*M2/4
*k[]
*a:
{8e
=1
8a
8b
8ccn
8b
=2
8a
8b
8ccn}
{8b
=3
8ee
8ee
8dd
8ccn
=4
8b
16b
16ccn
8a}
{8a
=5
8ee
8ffn
8ggn
8dd
=6
8ee
8ccn
8b}
{8gn
=7
8ee
8ffn
8ggn
8dd
=8
8ee
8ccn
8b}
{8gn
=9
8ee
8dd
8ccn
8b
=10
8a
8b
8g#}
{8gn
=11
8ee
8dd
8ccn
8b
=12
8a
8b
8g#}
{8e
=13
8a
8b
8ccn
8b
=14
8a
8b
8ccn}
{8b
=15
8ee
8ee
8dd
8ccn
=16
8b
16ccn
16b
8a}
==
!!!AGN: Romanze, Ballade, Ernst - Sage
!!!ONB: ESAC (Essen Associative Code) Database: ZUCCAL
!!!AMT: simple duple
!!!AIN: vox
!!!EED: Helmut Schaffrath
!!!EEV: 1.0
*-
